X: 20353
M: 3/4
L: 1/8
K: C
zEF |\
(AG)(GE)(FA) | (Ge)(eG)(Ge) | (Fd)(dF)(Fd) | (Ec)(cE)(EF) |\
(AG)(GE)(FA) | (Ge)(eG)(Ge) | (Fd)(dF)(Fd) | c2z :|
|: GEC |\
(B,D)(DG)(GB) | (Bd)(df) (fa) | (ag)(ge)(ec) | (AG)(GE)(EC) |\
|: Gcd |\
e3 Gcd | e3 GBd | f3 GBd | f3 dge |\
d3 dfd | (cB)(ce)(dB) | c2z :| zG2 | (GB)(Bd)(df) |
(Gc)(ce)(eg) | (GB)(Bd)(df) | (Gc)(ce)(eg) | z6 |\
z2zGBd | e3 Gcd | e3 GBd | f3 GBd |\
f3 dgf | e3 ege | d3 dgd | (cB)(ce)(dB) | c2"^D.C."z |]


